X:1
T:Title
%%score ( 1 2 ) { ( 3 5 ) | 4 }
L:1/8
Q:1/4=108
M:4/4
K:Ab
V:1 treble nm="Grand Piano, Staff 1"
V:2 treble 
V:3 bass nm="Choir Pad, � Herre Jesus, 88.88.87"
V:5 bass 
V:4 bass 
V:1
 [CF]2 [DF]2 [DF]2 [Ec]2 | [EB]2 [Cc]2 A-[=DA] [=EG]2 | F2 [CA]2 [EG]2 [EA]2 | %3
w: By~15th~Century~German~Tune * * *|||
 [Ec]2 [=DB]2 A-[DA] [EG]2 | [EA]2 [EF]2 [=DF]2 [EB]2 | [EG]2 F2- [=DF]2 [B,E]2 | %6
w: |||
 [B,E]2 [CA]2 [EG]2 [EA]2 | [Ec]2 [EB]2 A-[=DA] [=EG]2 | F2 [CA]2 [EG]2 [EA]2 | %9
w: |||
 [Ec]2 [DB]2 [CA]2 [=EG]2 | [Cc]2 [Fc]2 [Fc]2 [FB]2 | [FA]2 G2- [=EG]2 [CF]2- | [CF]6 z2 |] %13
w: ||||
V:2
 x8 | z4 .C2 z2 | x8 | z4 .C2 z2 | x8 | z2 E2 z4 | x8 | z4 .C2 z2 | x8 | x8 | x8 | z2 F2 z4 | x8 |] %13
V:3
 A,2 A,2 B,2 C2 | G,2 G,2 A,2 C2 | A,2 A,2 B,2 A,2 | A,2 F,2 A,2 B,2 | z4 B,2 z2 | B,2 B,4 G,2 | %6
 B,2 A,2 B,2 A,2 | A,2 G,2 A,2 C2 | A,2 A,2 B,2 A,2 | A,2 F,2 A,2 C2 | G,2 A,2[K:treble] C2 D2 | %11
 C2 D2 C2 A,2- | A,6 z2 |] %13
V:4
 F,2 D,2 B,,2 A,,2 | E,2 =E,2 F,2 C,2 | D,2 F,2 E,2 C,2 | A,,2 B,,2 F,2 E,2 | A,,2 .B,,4 G,,2 | %5
 E,,2 B,,4 E,2 | G,2 F,2 E,2 C,2 | A,,2 E,2 F,2 C,2 | D,2 F,2 E,2 C,2 | A,,2 B,,2 F,2 C,2 | %10
 =E,2 F,2 A,2 B,2 | F,2 B,,2 C,2 F,,2- | F,,6 z2 |] %13
V:5
 x8 | x8 | x8 | x8 | C2 B,2 z A,, B,2 | x8 | x8 | x8 | x8 | x8 | x4[K:treble] x4 | x8 | x8 |] %13

